X:1
T:Zion Is My Home
T:Zion Is My Home
T:T. R. Beard
T:D. N. Beard, 1911
T:Public Domain Courtesy of the Cyber Hymnal™
T:Public Domain Courtesy of the Cyber Hymnal™
C:T. R. Beard
Z:Public Domain
Z:Courtesy of the Cyber Hymnal™
%%score ( 1 2 ) ( 3 4 )
L:1/8
Q:1/4=89
M:4/4
K:Ab
V:1 treble 
V:2 treble 
V:3 bass 
V:4 bass 
V:1
 (3EFG x | A[EA][EA][EA] [EA]2 (3[Ec][EB][EA] | [DF][DF][DF][DF] [DF]2 (3FGA x | %3
w: 1.~Zi- on, blest|Zi- on, is my home, Cheer- ful- ly|march- ing with the throng, March- ing to|
w: 2.~Zi- on the|ci- ty of the blest, Where way- worn|pil- grims find sweet rest; Beau- ti- ful|
w: 3.~Zi- on, O|Zi- on, Zi- on, love, Beau- ti- ful|ci- ty far a- bove, Beau- ti- ful|
 [=DB][DB]DE [Ec][EB]GF | [=DB][DA][DG][DF] E2 (3EFG x | A[EA][EA][EA] [EA][Ec][Ed][Ec] | %6
w: Zi- on, Zi- on, Zi- on, Zi- on,|ci- ty of our God; Beau- ti- ful|Zi- on, glor- ious ci- ty, Bless- èd|
w: Zi- on, Zi- on, Zi- on, Zi- on,|ci- ty far a- bove; The on- ly|way to that bright ci- ty, Is thru|
w: ci- ty, Zi- on, ci- ty, Zi- on,|ci- ty of our God; Beau- ti- ful|Zi- on, glor- ious ci- ty, Bless- èd|
 [FB][DF][DF][DF] [DF]2 (3FGA x | E[EA]EE [Ec][Ec]CC | [Ec]>[=D=B] [Ec][_D_B] [CA]2 z2 || %9
w: ci- ty of our God. Beau- ti- ful|Zi- on, Zi- on, Z- ion, Zi- on,|Zi- on is my home.|
w: Je- sus’ pre- cious blood; Beau- i- ful|Zi- on, Zi- on, Zi- on, Zi- on|Zi- on is my home.|
w: ci- ty of our God. Beau- ti- ful|Zi- on, Zi- on, Zi- on, Zi- on,|Zi- on is my home.|
"^Refrain" [Ec][Ec] z2 [Ec][Ec] z2 | [FA]>[=EG] [FB][FB] [Ec]2 z2 | [=DF][DF] z2 [_DG][=DA] z2 | %12
w: |||
w: |||
w: |||
 [=DG]>[DA] [DG][DF] E2 | (3EFG x | A[EA][EA][EA] [EA][Ec][Ed][Ec] | %15
w: |Beau- ti- ful|Zi- on, glor- ious ci- ty, Bless- èd|
w: |The on- ly|way to that bright ci- ty, Is thru|
w: |Beau- ti- ful|Zi- on, glor- ious ci- ty, Bless- èd|
 [FB][DF][DF][DF] [DF]2 (3FGA x | E[EA]EE [Ec][Ec]CC | [Ec]>[=D=B] [Ec][_D_B] [CA]2 z2 |] %18
w: ci- ty of our God. Beau- ti- ful|Zi- on, Zi- on, Z- ion, Zi- on,|Zi- on is my home.|
w: Je- sus’ pre- cious blood; Beau- i- ful|Zi- on, Zi- on, Zi- on, Zi- on|Zi- on is my home.|
w: ci- ty of our God. Beau- ti- ful|Zi- on, Zi- on, Zi- on, Zi- on,|Zi- on is my home.|
V:2
 EFG | A x7 | x6 FGA | x8 | x4 E2 EFG | A x7 | x6 FGA | E x7 | x8 || x8 | x8 | x8 | x4 E2 | EFG | %14
 A x7 | x6 FGA | E x7 | x8 |] %18
V:3
 E,F,G, | A,[A,C][A,C][A,C] [A,C]2 (3[A,,A,][B,,G,][C,A,] | %2
w: Zi- on, Zi-|on, * * * * * * *|
 [D,A,][D,A,][D,A,][D,A,] [D,A,]2 F,G,A, | [B,,F,][B,,F,]F,G, [B,,A,][B,,G,]B,A, | %4
w: * * * * * Zi- on, Zi-||
 [B,,F,][B,,C][B,,B,][B,,A,] [E,G,]2 E,F,G, | A,[A,C][A,C][A,C] [A,C][A,,A,][B,,G,][C,A,] | %6
w: * * * * * on, Ci- ty|of * * * * * * *|
 [D,A,][D,A,][D,A,][D,A,] [D,A,]2 F,G,A, | [E,A,][E,C]CC [A,,A,][A,,A,]A,A, | %8
w: * * * * * our God. Zi-||
 [E,A,]>[E,A,] [E,G,][E,G,] [A,,A,]2 z2 || [A,,A,][A,,A,]C,E, A,A,E,C, | %10
w: |on, Zi- on, Zi- on, Zi- on, Hap-|
 [D,A,]>[D,A,] [D,A,][D,F,] [C,G,]2 z2 | [B,,A,][B,,A,]G,F, [B,,=E,][B,,F,]C_C | %12
w: py home a- bove. *||
 [B,,B,]>[B,,C] [B,,B,][B,,A,] [E,G,]2 | E,F,G, | A,[A,C][A,C][A,C] [A,C][A,,A,][B,,G,][C,A,] | %15
w: |||
 [D,A,][D,A,][D,A,][D,A,] [D,A,]2 F,G,A, | [E,A,][E,C]CC [A,,A,][A,,A,]A,A, | %17
w: ||
 [E,A,]>[E,A,] [E,G,][E,G,] [A,,A,]2 z2 |] %18
w: |
V:4
 (3E,F,G, x | A, x7 | x6 (3F,G,A, x | x8 | x6 (3E,F,G, x | A, x7 | x6 (3F,G,A, x | x8 | x8 || %9
 x4 A,A, x2 | x8 | x8 | x6 | (3E,F,G, x | A, x7 | x6 (3F,G,A, x | x8 | x8 |] %18

